austria/municipalities/40435.svg

<?xml version="1.0" encoding="UTF-8"?>
<!DOCTYPE svg PUBLIC "-//W3C//DTD SVG 1.1//EN" "http://www.w3.org/Graphics/SVG/1.1/DTD/svg11.dtd">
<svg xmlns="http://www.w3.org/2000/svg" version="1.1" width="166px" height="207px" style="shape-rendering:geometricPrecision; text-rendering:geometricPrecision; image-rendering:optimizeQuality; fill-rule:evenodd; clip-rule:evenodd" xmlns:xlink="http://www.w3.org/1999/xlink">
<g><path style="opacity:1" fill="#000000" d="M -0.5,-0.5 C 54.8333,-0.5 110.167,-0.5 165.5,-0.5C 165.5,43.5 165.5,87.5 165.5,131.5C 158.067,171.269 134.733,196.269 95.5,206.5C 86.8333,206.5 78.1667,206.5 69.5,206.5C 29.8711,196.203 6.53772,170.87 -0.5,130.5C -0.5,86.8333 -0.5,43.1667 -0.5,-0.5 Z"/></g>
<g><path style="opacity:1" fill="#ff9900" d="M 3.5,3.5 C 56.1667,3.5 108.833,3.5 161.5,3.5C 161.667,47.5013 161.5,91.5013 161,135.5C 153.006,170.826 131.506,192.993 96.5,202C 55.6122,206.141 26.4455,189.641 9,152.5C 6.44468,146.057 4.77802,139.39 4,132.5C 3.50001,89.5013 3.33334,46.5013 3.5,3.5 Z"/></g>
<g><path style="opacity:1" fill="#010000" d="M 114.5,28.5 C 117.764,27.0726 120.264,24.7392 122,21.5C 123.768,24.2181 123.934,27.0514 122.5,30C 123.549,30.4922 124.549,30.3256 125.5,29.5C 126.711,30.2739 126.711,31.1072 125.5,32C 131.016,34.3878 136.183,33.8878 141,30.5C 141.854,33.4066 141.021,35.7399 138.5,37.5C 141.128,39.6467 144.128,40.9801 147.5,41.5C 149.912,41.5938 151.745,40.5938 153,38.5C 153.832,43.5203 151.665,46.5203 146.5,47.5C 144.845,46.772 143.179,46.6053 141.5,47C 143.063,48.736 144.73,50.236 146.5,51.5C 148.942,51.3537 149.609,52.187 148.5,54C 142.622,55.6843 137.955,54.0176 134.5,49C 132.287,48.3744 130.12,48.5411 128,49.5C 123.12,47.975 118.953,45.3084 115.5,41.5C 114.478,41.8555 113.811,42.5222 113.5,43.5C 110.647,44.9528 107.647,46.1194 104.5,47C 108.034,47.8639 111.034,47.0306 113.5,44.5C 116.265,45.9963 118.099,48.3296 119,51.5C 121.002,58.8579 123.002,66.1912 125,73.5C 129.049,78.0353 127.882,78.702 121.5,75.5C 119.206,82.7774 120.872,88.9441 126.5,94C 122.812,94.4126 119.646,93.2459 117,90.5C 116.399,97.363 118.565,103.196 123.5,108C 121.711,108.52 120.044,108.187 118.5,107C 116.333,104.833 114.167,102.667 112,100.5C 111.308,101.025 110.808,101.692 110.5,102.5C 112.721,108.838 116.054,114.504 120.5,119.5C 120,119.833 119.5,120.167 119,120.5C 115.488,119.488 112.322,117.822 109.5,115.5C 110.506,122.313 113.84,128.146 119.5,133C 114.657,134.214 110.49,133.047 107,129.5C 106.634,136.076 109.134,141.243 114.5,145C 109.133,145.878 104.966,144.045 102,139.5C 100.245,145.212 101.911,149.545 107,152.5C 107.688,153.332 107.521,153.998 106.5,154.5C 101.244,152.078 97.0777,148.411 94,143.5C 93.6492,149.207 92.4825,154.707 90.5,160C 90.9534,163.227 91.9534,166.227 93.5,169C 91.2992,169.825 89.4659,169.325 88,167.5C 85.8709,160.374 84.8709,153.041 85,145.5C 83.7485,147.001 82.7485,148.668 82,150.5C 82.0493,159.294 79.7159,167.294 75,174.5C 73.292,176.543 71.292,178.21 69,179.5C 70.1377,176.945 71.4711,174.278 73,171.5C 73.6667,163.5 73.6667,155.5 73,147.5C 70.0111,154.455 67.0111,161.455 64,168.5C 62.1422,171.412 59.6422,172.912 56.5,173C 61.8523,164.841 63.019,156.008 60,146.5C 57.9844,150.531 55.9844,154.531 54,158.5C 50.016,163.066 45.1827,165.899 39.5,167C 46.3325,160.169 50.6659,152.002 52.5,142.5C 47.7751,145.193 42.7751,147.36 37.5,149C 33.7054,149.837 30.0387,149.504 26.5,148C 37.4883,144.168 46.8217,137.834 54.5,129C 44.1404,131.255 33.8071,130.922 23.5,128C 23.0426,127.586 22.7093,127.086 22.5,126.5C 34.3278,127.077 44.9945,123.911 54.5,117C 42.9033,116.909 33.57,112.243 26.5,103C 30.3913,104.259 34.3913,105.592 38.5,107C 44.1667,107.667 49.8333,107.667 55.5,107C 57.1667,105.833 58.8333,104.667 60.5,103.5C 54.0098,100.682 48.8432,96.3483 45,90.5C 44.3333,88.8333 44.3333,87.1667 45,85.5C 52.9603,93.6039 62.4603,95.7706 73.5,92C 66.5048,88.5009 64.8382,83.3343 68.5,76.5C 72.1994,85.0945 77.6994,86.4278 85,80.5C 85.7098,77.078 86.8765,73.9113 88.5,71C 81.1193,70.4929 73.7859,69.6596 66.5,68.5C 66.728,66.6453 66.0613,65.8119 64.5,66C 66.0198,73.8153 62.6865,77.1487 54.5,76C 58.9503,75.2244 60.4503,72.7244 59,68.5C 56.9189,67.6669 54.7522,67.6669 52.5,68.5C 51.833,66.1806 51.6664,63.8473 52,61.5C 52.7096,60.0267 53.8762,59.3601 55.5,59.5C 55.5,58.5 55.5,57.5 55.5,56.5C 47.1883,57.1607 40.5216,60.8274 35.5,67.5C 34.5511,63.8571 35.5511,60.6904 38.5,58C 35.0341,59.066 31.7007,60.7327 28.5,63C 23.8193,63.6654 19.486,62.6654 15.5,60C 20.4395,60.3195 24.7728,58.9861 28.5,56C 24.6982,55.5908 21.0315,54.7575 17.5,53.5C 22.2909,53.2195 27.2909,53.2195 32.5,53.5C 30.4766,57.6762 27.1433,60.1762 22.5,61C 27.5029,61.3895 31.8362,59.7228 35.5,56C 37.5787,55.1923 39.5787,55.359 41.5,56.5C 40.4104,57.6086 40.4104,58.6086 41.5,59.5C 46.0905,56.7685 51.0905,55.4351 56.5,55.5C 56.5,54.1667 56.5,52.8333 56.5,51.5C 53.9837,51.2447 51.6504,50.4114 49.5,49C 44.1991,42.6979 38.5325,36.6979 32.5,31C 31.2411,30.0181 29.9078,29.6848 28.5,30C 30.9554,33.0777 33.2887,36.2444 35.5,39.5C 35.0814,40.6721 34.4147,41.6721 33.5,42.5C 31.3333,41.0521 29,39.8854 26.5,39C 24.8798,36.6274 23.5464,34.1274 22.5,31.5C 21.0263,28.5043 18.693,27.0043 15.5,27C 17.8531,30.405 19.0198,34.2383 19,38.5C 21.2215,42.3881 24.3882,45.2214 28.5,47C 25.854,47.4974 23.1873,47.6641 20.5,47.5C 21.2625,46.7321 22.2625,46.2321 23.5,46C 21.0607,45.2261 19.2273,43.7261 18,41.5C 17.9113,37.4455 17.078,33.4455 15.5,29.5C 13.7046,27.2975 11.3712,26.1308 8.5,26C 11.6335,24.4303 14.9668,24.0969 18.5,25C 21.0519,28.2968 24.2186,29.1301 28,27.5C 29.8882,27.796 31.7216,28.296 33.5,29C 38.9704,34.2912 43.9704,39.9579 48.5,46C 49.745,46.7914 51.0783,47.2914 52.5,47.5C 50.576,45.9098 50.2427,44.0765 51.5,42C 47.2055,37.8716 48.0389,35.0383 54,33.5C 56.5272,35.097 59.1939,36.4303 62,37.5C 64.4649,36.3487 66.9649,35.3487 69.5,34.5C 80.0199,34.4219 80.0199,33.7552 69.5,32.5C 69.0072,28.6618 70.6738,26.6618 74.5,26.5C 81.0503,28.1079 86.717,31.2746 91.5,36C 92.7932,36.49 94.1266,36.6567 95.5,36.5C 96.3354,32.6763 98.3354,29.5096 101.5,27C 105.5,24.6667 109.5,22.3333 113.5,20C 114.701,19.0975 115.535,17.9308 116,16.5C 117.378,20.8981 116.212,24.3981 112.5,27C 113.416,27.2784 114.082,27.7784 114.5,28.5 Z"/></g>
<g><path style="opacity:1" fill="#cb0000" d="M 22.5,31.5 C 23.5464,34.1274 24.8798,36.6274 26.5,39C 29,39.8854 31.3333,41.0521 33.5,42.5C 34.4147,41.6721 35.0814,40.6721 35.5,39.5C 33.2887,36.2444 30.9554,33.0777 28.5,30C 29.9078,29.6848 31.2411,30.0181 32.5,31C 38.5325,36.6979 44.1991,42.6979 49.5,49C 51.6504,50.4114 53.9837,51.2447 56.5,51.5C 56.5,52.8333 56.5,54.1667 56.5,55.5C 51.0905,55.4351 46.0905,56.7685 41.5,59.5C 40.4104,58.6086 40.4104,57.6086 41.5,56.5C 39.5787,55.359 37.5787,55.1923 35.5,56C 31.8362,59.7228 27.5029,61.3895 22.5,61C 27.1433,60.1762 30.4766,57.6762 32.5,53.5C 27.2909,53.2195 22.2909,53.2195 17.5,53.5C 17.1667,53.5 16.8333,53.5 16.5,53.5C 15.1266,53.6567 13.7932,53.49 12.5,53C 14.7463,50.3906 17.413,48.5572 20.5,47.5C 23.1873,47.6641 25.854,47.4974 28.5,47C 24.3882,45.2214 21.2215,42.3881 19,38.5C 19.0198,34.2383 17.8531,30.405 15.5,27C 18.693,27.0043 21.0263,28.5043 22.5,31.5 Z"/></g>
<g><path style="opacity:1" fill="#fefffe" d="M 114.5,28.5 C 113.341,30.3769 111.674,30.8769 109.5,30C 110.905,28.7308 112.571,28.2308 114.5,28.5 Z"/></g>
<g><path style="opacity:1" fill="#fe9900" d="M 22.5,31.5 C 22.3691,30.6236 22.7025,29.9569 23.5,29.5C 27.3642,31.1978 30.0309,34.0311 31.5,38C 30.0922,38.3152 28.7589,37.9819 27.5,37C 26.3365,34.6716 24.6698,32.8382 22.5,31.5 Z"/></g>
<g><path style="opacity:1" fill="#fefffe" d="M 69.5,32.5 C 80.0199,33.7552 80.0199,34.4219 69.5,34.5C 69.5,33.8333 69.5,33.1667 69.5,32.5 Z"/></g>
<g><path style="opacity:1" fill="#fefffe" d="M 95.5,36.5 C 97.5441,35.9688 99.2107,34.8022 100.5,33C 101.5,32.3333 102.5,32.3333 103.5,33C 100.667,35.1667 98.1667,37.6667 96,40.5C 95.51,39.2068 95.3433,37.8734 95.5,36.5 Z"/></g>
<g><path style="opacity:1" fill="#cb0000" d="M 146.5,51.5 C 144.712,52.6225 142.712,52.7891 140.5,52C 137.926,49.7574 135.092,47.924 132,46.5C 129.88,47.4589 127.713,47.6256 125.5,47C 121.878,44.7133 118.545,42.0466 115.5,39C 113.527,38.5045 111.527,38.3379 109.5,38.5C 109.5,37.5 109.5,36.5 109.5,35.5C 113.23,36.9889 116.897,36.8222 120.5,35C 126.5,34.3333 132.5,34.3333 138.5,35C 137.5,36 136.5,37 135.5,38C 132.5,38.3333 129.5,38.6667 126.5,39C 130.091,39.7886 133.591,39.6219 137,38.5C 141.253,42.2536 146.087,43.7536 151.5,43C 149.854,44.6556 147.854,45.4889 145.5,45.5C 142.182,44.5109 138.848,43.5109 135.5,42.5C 134.263,42.5565 133.263,43.0565 132.5,44C 137.212,44.7162 140.879,47.0495 143.5,51C 144.448,51.4828 145.448,51.6495 146.5,51.5 Z"/></g>
<g><path style="opacity:1" fill="#fefffe" d="M 52.5,36.5 C 55.4014,37.1783 55.9014,38.5116 54,40.5C 52.8118,39.4366 52.3118,38.1033 52.5,36.5 Z"/></g>
<g><path style="opacity:1" fill="#fefffe" d="M 82.5,37.5 C 82.8966,36.475 83.5632,36.3083 84.5,37C 86.539,39.3745 88.8723,41.3745 91.5,43C 90.5,43.6667 89.5,43.6667 88.5,43C 86.6298,40.9604 84.6298,39.1271 82.5,37.5 Z"/></g>
<g><path style="opacity:1" fill="#fefffe" d="M 56.5,38.5 C 58.337,38.6395 58.6704,39.3061 57.5,40.5C 56.7025,40.0431 56.3691,39.3764 56.5,38.5 Z"/></g>
<g><path style="opacity:1" fill="#fefffe" d="M 75.5,44.5 C 74.095,42.7749 73.595,40.7749 74,38.5C 75.128,40.3453 75.628,42.3453 75.5,44.5 Z"/></g>
<g><path style="opacity:1" fill="#fefffe" d="M 78.5,38.5 C 79.7562,38.4614 80.7562,38.9614 81.5,40C 80.3982,43.06 81.3982,43.8934 84.5,42.5C 85.3857,43.325 85.719,44.325 85.5,45.5C 79.2734,46.6101 76.9401,44.2768 78.5,38.5 Z"/></g>
<g><path style="opacity:1" fill="#fefffe" d="M 113.5,43.5 C 113.5,43.8333 113.5,44.1667 113.5,44.5C 111.034,47.0306 108.034,47.8639 104.5,47C 107.647,46.1194 110.647,44.9528 113.5,43.5 Z"/></g>
<g><path style="opacity:1" fill="#fefffe" d="M 75.5,44.5 C 76.2891,44.7828 76.9558,45.2828 77.5,46C 76.184,46.5281 75.5173,46.0281 75.5,44.5 Z"/></g>
<g><path style="opacity:1" fill="#fefffe" d="M 64.5,51.5 C 63.8826,51.6107 63.3826,51.944 63,52.5C 62.3333,50.5 62.3333,48.5 63,46.5C 63.9246,47.0465 64.7579,47.7132 65.5,48.5C 64.8728,49.4168 64.5394,50.4168 64.5,51.5 Z"/></g>
<g><path style="opacity:1" fill="#0b0200" d="M 20.5,47.5 C 17.413,48.5572 14.7463,50.3906 12.5,53C 13.7932,53.49 15.1266,53.6567 16.5,53.5C 14.2559,54.3009 12.2559,55.6343 10.5,57.5C 9.32585,53.0185 10.9925,49.8519 15.5,48C 17.1341,47.5065 18.8008,47.3398 20.5,47.5 Z"/></g>
<g><path style="opacity:1" fill="#fe9900" d="M 52.5,47.5 C 54.1033,47.3118 55.4366,47.8118 56.5,49C 54.8602,49.3478 53.5268,48.8478 52.5,47.5 Z"/></g>
<g><path style="opacity:1" fill="#fefffe" d="M 57.5,47.5 C 59.2252,47.8425 59.7252,48.8425 59,50.5C 57.9614,49.7562 57.4614,48.7562 57.5,47.5 Z"/></g>
<g><path style="opacity:1" fill="#cb0000" d="M 60.5,49.5 C 61.8299,52.4397 61.6633,55.4397 60,58.5C 59.5,57 59,55.5 58.5,54C 59.4138,52.5936 60.0805,51.0936 60.5,49.5 Z"/></g>
<g><path style="opacity:1" fill="#fefffe" d="M 67.5,49.5 C 69.337,49.6395 69.6704,50.3061 68.5,51.5C 67.7025,51.0431 67.3691,50.3764 67.5,49.5 Z"/></g>
<g><path style="opacity:1" fill="#fefffe" d="M 71.5,49.5 C 73.8519,50.5426 74.0185,51.8759 72,53.5C 71.51,52.2068 71.3433,50.8734 71.5,49.5 Z"/></g>
<g><path style="opacity:1" fill="#000000" d="M 32.5,53.5 C 33.3143,51.7274 34.6476,51.2274 36.5,52C 35.255,52.7914 33.9217,53.2914 32.5,53.5 Z"/></g>
<g><path style="opacity:1" fill="#cb0000" d="M 64.5,51.5 C 66.8475,53.0301 67.0141,55.0301 65,57.5C 63.2041,55.5983 63.0374,53.5983 64.5,51.5 Z"/></g>
<g><path style="opacity:1" fill="#fefffe" d="M 79.5,51.5 C 80.7479,52.3339 81.4146,53.6672 81.5,55.5C 81.1667,56.8333 80.8333,58.1667 80.5,59.5C 80.7628,57.0388 80.4294,54.3721 79.5,51.5 Z"/></g>
<g><path style="opacity:1" fill="#cb0000" d="M 69.5,59.5 C 68.5222,59.189 67.8555,58.5223 67.5,57.5C 68.5312,56.2997 69.3645,54.9663 70,53.5C 70.6924,54.0253 71.1924,54.6919 71.5,55.5C 70.3698,56.6223 69.7031,57.9557 69.5,59.5 Z"/></g>
<g><path style="opacity:1" fill="#cb0000" d="M 73.5,53.5 C 75.3258,55.4551 75.8258,57.7884 75,60.5C 73.7978,58.3225 73.2978,55.9892 73.5,53.5 Z"/></g>
<g><path style="opacity:1" fill="#fefffe" d="M 57.5,56.5 C 58.7759,57.3864 58.7759,58.3864 57.5,59.5C 56.913,58.7666 56.913,57.7666 57.5,56.5 Z"/></g>
<g><path style="opacity:1" fill="#fefffe" d="M 69.5,59.5 C 70.7498,59.4226 71.5831,58.756 72,57.5C 72.4828,58.448 72.6495,59.448 72.5,60.5C 71.209,60.7373 70.209,60.404 69.5,59.5 Z"/></g>
<g><path style="opacity:1" fill="#fefffe" d="M 99.5,59.5 C 101.75,59.1814 103.75,59.6814 105.5,61C 103.62,60.4902 101.787,60.6569 100,61.5C 99.5357,60.9056 99.369,60.2389 99.5,59.5 Z"/></g>
<g><path style="opacity:1" fill="#fefffe" d="M 97.5,65.5 C 97.7828,64.7109 98.2828,64.0442 99,63.5C 99.5281,64.816 99.0281,65.4827 97.5,65.5 Z"/></g>
<g><path style="opacity:1" fill="#fefffe" d="M 97.5,65.5 C 96.588,67.5952 95.4213,69.5952 94,71.5C 92.6012,70.7734 91.1012,70.2734 89.5,70C 92.7776,69.5494 95.4442,68.0494 97.5,65.5 Z"/></g>
<g><path style="opacity:1" fill="#fefffe" d="M 91.5,80.5 C 92.3195,78.1877 93.1529,75.8543 94,73.5C 94.838,76.4807 94.0047,78.8141 91.5,80.5 Z"/></g>
<g><path style="opacity:1" fill="#fefffe" d="M 91.5,80.5 C 91.4827,82.0281 90.816,82.5281 89.5,82C 90.0442,81.2828 90.7109,80.7828 91.5,80.5 Z"/></g>
<g><path style="opacity:1" fill="#fefffe" d="M -0.5,130.5 C 6.53772,170.87 29.8711,196.203 69.5,206.5C 46.1667,206.5 22.8333,206.5 -0.5,206.5C -0.5,181.167 -0.5,155.833 -0.5,130.5 Z"/></g>
<g><path style="opacity:1" fill="#fefffe" d="M 165.5,131.5 C 165.5,156.5 165.5,181.5 165.5,206.5C 142.167,206.5 118.833,206.5 95.5,206.5C 134.733,196.269 158.067,171.269 165.5,131.5 Z"/></g>
<g><path style="opacity:1" fill="#fe9900" d="M 52.5,142.5 C 52.7828,141.711 53.2828,141.044 54,140.5C 54.5281,141.816 54.0281,142.483 52.5,142.5 Z"/></g>
</svg>

<svg xmlns="http://www.w3.org/2000/svg" width="166" height="207" style="shape-rendering:geometricPrecision;text-rendering:geometricPrecision;image-rendering:optimizeQuality;fill-rule:evenodd;clip-rule:evenodd"><path style="opacity:1" d="M-.5-.5h166v132c-7.433 39.769-30.767 64.769-70 75h-26c-39.629-10.297-62.962-35.63-70-76V-.5z"/><path style="opacity:1" fill="#f90" d="M3.5 3.5h158c.167 44.001 0 88.001-.5 132-7.994 35.326-29.494 57.493-64.5 66.5-40.888 4.141-70.055-12.359-87.5-49.5a77.645 77.645 0 0 1-5-20c-.5-42.999-.667-85.999-.5-129z"/><path style="opacity:1" fill="#010000" d="M114.5 28.5c3.264-1.427 5.764-3.76 7.5-7 1.768 2.718 1.934 5.551.5 8.5 1.049.492 2.049.326 3-.5 1.211.774 1.211 1.607 0 2.5 5.516 2.388 10.683 1.888 15.5-1.5.854 2.907.021 5.24-2.5 7 2.628 2.147 5.628 3.48 9 4 2.412.094 4.245-.906 5.5-3 .832 5.02-1.335 8.02-6.5 9-1.655-.728-3.321-.895-5-.5 1.563 1.736 3.23 3.236 5 4.5 2.442-.146 3.109.687 2 2.5-5.878 1.684-10.545.018-14-5-2.213-.626-4.38-.459-6.5.5-4.88-1.525-9.047-4.192-12.5-8-1.022.355-1.689 1.022-2 2a48.698 48.698 0 0 1-9 3.5c3.534.864 6.534.03 9-2.5 2.765 1.496 4.599 3.83 5.5 7 2.002 7.358 4.002 14.691 6 22 4.049 4.535 2.882 5.202-3.5 2-2.294 7.277-.628 13.444 5 18.5-3.688.413-6.854-.754-9.5-3.5-.601 6.863 1.565 12.696 6.5 17.5-1.789.52-3.456.187-5-1l-6.5-6.5a4.457 4.457 0 0 0-1.5 2c2.221 6.338 5.554 12.004 10 17l-1.5 1a26.224 26.224 0 0 1-9.5-5c1.006 6.813 4.34 12.646 10 17.5-4.843 1.214-9.01.047-12.5-3.5-.366 6.576 2.134 11.743 7.5 15.5-5.367.878-9.534-.955-12.5-5.5-1.755 5.712-.089 10.045 5 13 .688.832.521 1.498-.5 2-5.256-2.422-9.422-6.089-12.5-11a56.693 56.693 0 0 1-3.5 16.5c.453 3.227 1.453 6.227 3 9-2.2.825-4.034.325-5.5-1.5-2.13-7.126-3.13-14.459-3-22a18.95 18.95 0 0 0-3 5c.05 8.794-2.284 16.794-7 24a21.53 21.53 0 0 1-6 5 106.536 106.536 0 0 1 4-8c.667-8 .667-16 0-24-2.989 6.955-5.989 13.955-9 21-1.858 2.912-4.358 4.412-7.5 4.5 5.352-8.159 6.519-16.992 3.5-26.5l-6 12c-3.984 4.566-8.817 7.399-14.5 8.5 6.833-6.831 11.166-14.998 13-24.5a75.4 75.4 0 0 1-15 6.5c-3.795.837-7.461.504-11-1 10.988-3.832 20.322-10.166 28-19-10.36 2.255-20.693 1.922-31-1a3.646 3.646 0 0 1-1-1.5c11.828.577 22.495-2.589 32-9.5-11.597-.091-20.93-4.757-28-14a734.407 734.407 0 0 1 12 4 72.464 72.464 0 0 0 17 0l5-3.5c-6.49-2.818-11.657-7.152-15.5-13-.667-1.667-.667-3.333 0-5 7.96 8.104 17.46 10.27 28.5 6.5-6.995-3.5-8.662-8.666-5-15.5 3.7 8.594 9.2 9.928 16.5 4 .71-3.422 1.876-6.589 3.5-9.5a248.088 248.088 0 0 1-22-2.5c.228-1.855-.439-2.688-2-2.5 1.52 7.815-1.813 11.149-10 10 4.45-.776 5.95-3.276 4.5-7.5-2.081-.833-4.248-.833-6.5 0a16.603 16.603 0 0 1-.5-7c.71-1.473 1.876-2.14 3.5-2v-3c-8.312.66-14.978 4.327-20 11-.949-3.643.051-6.81 3-9.5-3.466 1.066-6.8 2.733-10 5-4.68.665-9.014-.335-13-3 4.94.32 9.273-1.014 13-4a47.98 47.98 0 0 1-11-2.5c4.79-.28 9.79-.28 15 0-2.023 4.176-5.357 6.676-10 7.5 5.003.39 9.336-1.277 13-5 2.079-.808 4.079-.641 6 .5-1.09 1.109-1.09 2.109 0 3 4.59-2.731 9.59-4.065 15-4v-4c-2.516-.255-4.85-1.089-7-2.5a216.005 216.005 0 0 0-17-18c-1.259-.982-2.592-1.315-4-1a153.732 153.732 0 0 1 7 9.5 7.291 7.291 0 0 1-2 3 31.427 31.427 0 0 0-7-3.5 38.576 38.576 0 0 1-4-7.5c-1.474-2.996-3.807-4.496-7-4.5 2.353 3.405 3.52 7.238 3.5 11.5 2.221 3.888 5.388 6.721 9.5 8.5a32.437 32.437 0 0 1-8 .5c.762-.768 1.762-1.268 3-1.5-2.44-.774-4.273-2.274-5.5-4.5-.089-4.054-.922-8.054-2.5-12-1.795-2.203-4.129-3.37-7-3.5 3.133-1.57 6.467-1.903 10-1 2.552 3.297 5.719 4.13 9.5 2.5a25.72 25.72 0 0 1 5.5 1.5 142.734 142.734 0 0 1 15 17 10.123 10.123 0 0 0 4 1.5c-1.924-1.59-2.257-3.423-1-5.5-4.294-4.128-3.461-6.962 2.5-8.5a44.828 44.828 0 0 0 8 4 70.896 70.896 0 0 1 7.5-3c10.52-.078 10.52-.745 0-2-.493-3.838 1.174-5.838 5-6 6.55 1.608 12.217 4.775 17 9.5a8.434 8.434 0 0 0 4 .5c.835-3.824 2.835-6.99 6-9.5l12-7a6.977 6.977 0 0 0 2.5-3.5c1.378 4.398.212 7.898-3.5 10.5.916.278 1.582.778 2 1.5z"/><path style="opacity:1" fill="#cb0000" d="M22.5 31.5a38.576 38.576 0 0 0 4 7.5c2.5.885 4.833 2.052 7 3.5a7.291 7.291 0 0 0 2-3 153.732 153.732 0 0 0-7-9.5c1.408-.315 2.741.018 4 1a216.005 216.005 0 0 1 17 18c2.15 1.411 4.484 2.245 7 2.5v4c-5.41-.065-10.41 1.269-15 4-1.09-.891-1.09-1.891 0-3-1.921-1.141-3.921-1.308-6-.5-3.664 3.723-7.997 5.39-13 5 4.643-.824 7.977-3.324 10-7.5-5.21-.28-10.21-.28-15 0h-1a8.434 8.434 0 0 1-4-.5c2.246-2.61 4.913-4.443 8-5.5a32.437 32.437 0 0 0 8-.5c-4.112-1.779-7.279-4.612-9.5-8.5.02-4.262-1.147-8.095-3.5-11.5 3.193.004 5.526 1.504 7 4.5z"/><path style="opacity:1" fill="#fefffe" d="M114.5 28.5c-1.159 1.877-2.826 2.377-5 1.5 1.405-1.27 3.071-1.77 5-1.5z"/><path style="opacity:1" fill="#fe9900" d="M22.5 31.5c-.13-.876.203-1.543 1-2 3.864 1.698 6.53 4.531 8 8.5-1.408.315-2.741-.018-4-1-1.163-2.328-2.83-4.162-5-5.5z"/><path style="opacity:1" fill="#fefffe" d="M69.5 32.5c10.52 1.255 10.52 1.922 0 2v-2zM95.5 36.5c2.044-.531 3.71-1.698 5-3.5 1-.667 2-.667 3 0a39.964 39.964 0 0 0-7.5 7.5 8.434 8.434 0 0 1-.5-4z"/><path style="opacity:1" fill="#cb0000" d="M146.5 51.5c-1.788 1.123-3.788 1.29-6 .5a35.453 35.453 0 0 0-8.5-5.5c-2.12.959-4.287 1.126-6.5.5a57.491 57.491 0 0 1-10-8 18.437 18.437 0 0 0-6-.5v-3c3.73 1.489 7.397 1.322 11-.5 6-.667 12-.667 18 0l-3 3-9 1c3.591.789 7.091.622 10.5-.5 4.253 3.754 9.087 5.254 14.5 4.5-1.646 1.656-3.646 2.489-6 2.5-3.318-.99-6.652-1.99-10-3-1.237.056-2.237.556-3 1.5 4.712.716 8.379 3.05 11 7 .948.483 1.948.65 3 .5z"/><path style="opacity:1" fill="#fefffe" d="M52.5 36.5c2.901.678 3.401 2.012 1.5 4-1.188-1.063-1.688-2.397-1.5-4zM82.5 37.5c.397-1.025 1.063-1.192 2-.5a29.946 29.946 0 0 0 7 6c-1 .667-2 .667-3 0a46.142 46.142 0 0 0-6-5.5zM56.5 38.5c1.837.14 2.17.806 1 2-.797-.457-1.13-1.124-1-2zM75.5 44.5c-1.405-1.725-1.905-3.725-1.5-6a10.1 10.1 0 0 1 1.5 6zM78.5 38.5c1.256-.039 2.256.461 3 1.5-1.102 3.06-.102 3.893 3 2.5.886.825 1.219 1.825 1 3-6.227 1.11-8.56-1.223-7-7zM113.5 43.5v1c-2.466 2.53-5.466 3.364-9 2.5a48.698 48.698 0 0 0 9-3.5zM75.5 44.5c.79.283 1.456.783 2 1.5-1.316.528-1.983.028-2-1.5zM64.5 51.5c-.617.11-1.117.444-1.5 1-.667-2-.667-4 0-6a11.383 11.383 0 0 1 2.5 2 5.576 5.576 0 0 0-1 3z"/><path style="opacity:1" fill="#0b0200" d="M20.5 47.5c-3.087 1.057-5.754 2.89-8 5.5a8.434 8.434 0 0 0 4 .5c-2.244.8-4.244 2.134-6 4-1.174-4.481.492-7.648 5-9.5 1.634-.493 3.3-.66 5-.5z"/><path style="opacity:1" fill="#fe9900" d="M52.5 47.5c1.603-.188 2.937.312 4 1.5-1.64.348-2.973-.152-4-1.5z"/><path style="opacity:1" fill="#fefffe" d="M57.5 47.5c1.725.343 2.225 1.343 1.5 3-1.039-.744-1.539-1.744-1.5-3z"/><path style="opacity:1" fill="#cb0000" d="M60.5 49.5c1.33 2.94 1.163 5.94-.5 9L58.5 54a15.416 15.416 0 0 0 2-4.5z"/><path style="opacity:1" fill="#fefffe" d="M67.5 49.5c1.837.14 2.17.806 1 2-.797-.457-1.13-1.124-1-2zM71.5 49.5c2.352 1.043 2.519 2.376.5 4a8.434 8.434 0 0 1-.5-4z"/><path style="opacity:1" d="M32.5 53.5c.814-1.773 2.148-2.273 4-1.5a10.123 10.123 0 0 1-4 1.5z"/><path style="opacity:1" fill="#cb0000" d="M64.5 51.5c2.347 1.53 2.514 3.53.5 6-1.796-1.902-1.963-3.902-.5-6z"/><path style="opacity:1" fill="#fefffe" d="M79.5 51.5c1.248.834 1.915 2.167 2 4l-1 4c.263-2.461-.07-5.128-1-8z"/><path style="opacity:1" fill="#cb0000" d="M69.5 59.5c-.978-.311-1.644-.978-2-2a15.653 15.653 0 0 0 2.5-4 4.452 4.452 0 0 1 1.5 2c-1.13 1.122-1.797 2.456-2 4zM73.5 53.5c1.826 1.955 2.326 4.288 1.5 7-1.202-2.178-1.702-4.51-1.5-7z"/><path style="opacity:1" fill="#fefffe" d="M57.5 56.5c1.276.886 1.276 1.886 0 3-.587-.733-.587-1.733 0-3zM69.5 59.5c1.25-.077 2.083-.744 2.5-2 .483.948.65 1.948.5 3-1.291.237-2.291-.096-3-1zM99.5 59.5c2.25-.319 4.25.181 6 1.5-1.88-.51-3.713-.343-5.5.5a2.428 2.428 0 0 1-.5-2zM97.5 65.5c.283-.79.783-1.456 1.5-2 .528 1.316.028 1.983-1.5 2zM97.5 65.5a30.112 30.112 0 0 1-3.5 6 15.276 15.276 0 0 0-4.5-1.5c3.278-.45 5.944-1.95 8-4.5zM91.5 80.5c.82-2.312 1.653-4.646 2.5-7 .838 2.98.005 5.314-2.5 7zM91.5 80.5c-.017 1.528-.684 2.028-2 1.5.544-.717 1.21-1.217 2-1.5zM-.5 130.5c7.038 40.37 30.371 65.703 70 76h-70v-76zM165.5 131.5v75h-70c39.233-10.231 62.567-35.231 70-75z"/><path style="opacity:1" fill="#fe9900" d="M52.5 142.5c.283-.789.783-1.456 1.5-2 .528 1.316.028 1.983-1.5 2z"/></svg>
